packages/bezier-icons/icons/baseball.svg

<svg width="24" height="24" viewBox="0 0 24 24" fill="none" xmlns="http://www.w3.org/2000/svg">
<path fill-rule="evenodd" clip-rule="evenodd" d="M12.0005 1.99969C6.47764 1.99969 2.00049 6.47685 2.00049 11.9997C2.00049 17.5225 6.47764 21.9997 12.0005 21.9997C17.5233 21.9997 22.0005 17.5225 22.0005 11.9997C22.0005 6.47685 17.5233 1.99969 12.0005 1.99969ZM12.0005 3.99969C10.2317 3.99969 8.5969 4.57376 7.27237 5.54574C8.95478 7.18104 9.99999 9.46846 9.99999 12C9.99999 14.5314 8.95492 16.8186 7.27272 18.4539C8.59718 19.4257 10.2318 19.9997 12.0005 19.9997C13.7689 19.9997 15.4033 19.4259 16.7277 18.4543C15.0452 16.819 14 14.5316 14 12C14 9.46824 15.0454 7.18065 16.728 5.54533C15.4036 4.5736 13.7691 3.99969 12.0005 3.99969ZM18.1824 6.92152C16.8382 8.19708 16 10.0006 16 12C16 13.9992 16.8381 15.8027 18.1821 17.0782C19.3183 15.6968 20.0005 13.9279 20.0005 11.9997C20.0005 10.0716 19.3184 8.30285 18.1824 6.92152ZM4.00049 11.9997C4.00049 10.0719 4.68239 8.30331 5.81815 6.92206C7.16201 8.19758 7.99999 10.0009 7.99999 12C7.99999 13.9989 7.16212 15.8022 5.81843 17.0777C4.6825 15.6964 4.00049 13.9277 4.00049 11.9997Z" fill="#313234"/>
</svg>

<svg xmlns="http://www.w3.org/2000/svg" width="24" height="24" fill="none" viewBox="0 0 24 24"><path fill="#313234" fill-rule="evenodd" d="M12 2C6.479 2 2 6.477 2 12s4.478 10 10 10 10-4.477 10-10S17.524 2 12 2m0 2a7.96 7.96 0 0 0-4.728 1.546A8.97 8.97 0 0 1 10 12a8.97 8.97 0 0 1-2.727 6.454A7.96 7.96 0 0 0 12 20a7.96 7.96 0 0 0 4.727-1.546A8.97 8.97 0 0 1 14 12a8.97 8.97 0 0 1 2.728-6.455A7.96 7.96 0 0 0 12 4m6.182 2.922A6.98 6.98 0 0 0 16 12c0 2 .838 3.803 2.182 5.078A7.97 7.97 0 0 0 20.001 12a7.97 7.97 0 0 0-1.819-5.078M4 12c0-1.928.682-3.697 1.818-5.078A6.98 6.98 0 0 1 8 12a6.98 6.98 0 0 1-2.182 5.078A7.97 7.97 0 0 1 4 12" clip-rule="evenodd"/></svg>
